X: 1
T:January Storm, The
R:strathspey
C:Tony Upton, 1/18/99
N:The title refers to an unexpected thunderstorm that came through here
N:on
N:he day I composed the tune.
M:4/4
L:1/8
Q:1/4=150
K:G
G<BE>B G<BE>G|G,<DB,>D (3G,B,D B,>D|G,<B,E>B G<BE>G|
[1 F>DB,<D G2G2:|[2 F>DB,<D E2B,>E||
F<EE>A G<DB,>G|G,/F/E/D/B,>D G,<DB,>D|G,/A,/B,G,>E G<B,E>G|
[1 F>DE/F/G/F/ E2B,>E:|[2 F>DB,<D G2G2||
(3FGA G>D F<EE>D|B,<EE>D F<EE>D|G,<B,E>B, G,<B,D>G|
[1 F>DB,<D E2B,>E:|[2 G,/F/E/D/B,>D G2G2||

% Output from ABC2Win  Version 2.1 h on 13/02/2002
